images/youtube.svg

<svg width="20" height="21" viewBox="0 0 20 21" fill="none" xmlns="http://www.w3.org/2000/svg">
<path d="M19.9885 8.53082C20.0324 7.28261 19.7599 6.04313 19.1885 4.92586C18.8017 4.47196 18.2655 4.15773 17.6765 4.05298C15.2327 3.83477 12.7714 3.74748 10.3188 3.7824C7.87504 3.73875 5.42245 3.82604 2.98746 4.04426C2.50398 4.13154 2.05566 4.35849 1.70404 4.69018C0.912891 5.41467 0.824981 6.65414 0.737078 7.70159C0.605219 9.587 0.605219 11.4724 0.737078 13.3578C0.763452 13.9514 0.851355 14.5362 1.00079 15.1036C1.10628 15.5487 1.31726 15.9502 1.62493 16.2907C1.98534 16.6398 2.44245 16.8842 2.93472 16.9715C4.83348 17.2072 6.74104 17.3032 8.64859 17.2595C11.7253 17.3032 14.424 17.2595 17.615 17.0151C18.1248 16.9278 18.5907 16.6922 18.9599 16.3343C19.2061 16.0899 19.3907 15.7931 19.4961 15.4614C19.8127 14.5013 19.9621 13.4974 19.9533 12.4936C19.9885 12.0049 19.9885 9.05454 19.9885 8.53082ZM8.33214 13.0174V7.6143L13.5361 10.3289C12.0769 11.132 10.1518 12.0398 8.33214 13.0174Z" fill="white"/>
</svg>

<svg width="20" height="21" fill="none" xmlns="http://www.w3.org/2000/svg"><path d="M19.988 8.53a7.343 7.343 0 00-.8-3.604 2.594 2.594 0 00-1.511-.873 71.39 71.39 0 00-7.358-.27 68.515 68.515 0 00-7.332.261 2.53 2.53 0 00-1.283.646C.913 5.415.825 6.654.737 7.702a40.487 40.487 0 000 5.656 8.25 8.25 0 00.264 1.746c.105.445.316.846.624 1.187.36.349.817.593 1.31.68a39.09 39.09 0 005.714.288c3.076.044 5.775 0 8.966-.244.51-.087.976-.323 1.345-.68.246-.245.43-.542.536-.874a9.2 9.2 0 00.457-2.967c.035-.49.035-3.44.035-3.963zM8.332 13.018V7.614l5.204 2.715c-1.46.803-3.384 1.71-5.204 2.688z" fill="#fff"/></svg>
